X:1
T:Title
%%score 1 2 3 4
L:1/8
M:4/4
K:Bb
V:1 treble nm="Church Organ, Soprano"
V:2 treble nm="French Horn, Alto"
V:3 bass nm="Trombone, Tenor"
V:4 bass nm="Tuba, Bass"
V:1
 D2 G2 G2 GF | GA B2 B2 c2 | c2 d2- d/ z/ c BA | G2 F4 D2 | D2 G2 G2 GF | GA B2 B2 c2 | %6
w: By~"We~are~poor~frozen\-out~gardeners" * * * *||||||
 c2 d2- d/ z/ c cB | G2 G6 | de f2 d2 dc | B2 c2 c2 d2 | Bc d2 G2 GF | D2 F6 | D2 G2 G2 GF | %13
w: |||||||
 GA B2 B2 c2 | c2 d2- d/ z/ c cB | G2 G6 |] %16
w: |||
V:2
 D2 D2 D2 E2 | C2 D2 D2 C2 | F2 F2 F2 D2 | E2 C4 D2 | D2 D2 D2 E2 | C2 D2 D2 C2 | F2 F2 E2 F2 | %7
 E2 D6 | G2 F2 F2 A2 | G2 G2 F2 F2 | E2 D2 ED C2 | D2 C6 | D2 B,2 D2 E2 | C2 D2 D2 C2 | %14
 F2 F2 E2 F2- | FE D6 |] %16
V:3
 D,2 B,2 D2 C2 | C2 B,2 G,2 G,2 | A,2 B,2 A,2 B,2 | B,2 B,2 A,2 B,2 | D,2 B,2[K:treble] D2 C2 | %5
w: Be hold~ a~ sim|ple~ ten der~ babe,~|In~ freez * win|ter~ night,~ * *|In~ home ly~ man|
 C2 B,2 G,2[K:bass] G,2 | A,2 B,2 G,2 F,2 | G,A, B,6 | B,2[K:treble] C2 D2 F2 | %9
w: ger~ tremb ling~ lies:~|A las!~ * pi|teous~ * sight.~|The~ inns~ are~ full;~|
 D2 C2[K:bass] A,2 B,2 | G,2 B,2 G,2 C2 | B,2 B,4 A,2 | D,2 G,2 G,2 C2 | C2 B,2 G,2 G,2 | %14
w: no~ man~ will~ yield~|This~ lit tle~ Pil|grim~ bed;~ *|But~ forced~ He~ is~|with~ sense less~ beasts~|
 A,2 B,2 G,2 F,2 | G,A, =B,6 |] %16
w: In~ crib~ * shroud~|his~ * head.~|
V:4
 D,2 G,,2 B,,2 C,2 | E,2 G,2- G,/ z/ F, E,2 | F,2 B,2 F,2 G,2 | E,2 F,4 B,,2 | D,2 G,,2 B,,2 C,2 | %5
 E,2 G,2- G,/ z/ F, E,2 | F,2 B,2 E,2 D,2 | C,2 G,,6 | G,2 A,2 B,2 F,2 | G,2 E,2 F,2 B,,2 | %10
 E,2 B,,2 C,B,, A,,2 | B,,2 F,6 | D,2 E,2 B,,2 C,2 | E,2 G,2- G,/ z/ F, E,2 | F,2 B,2 E,2 D,2 | %15
 C,2 G,,6 |] %16

